!!!ONB: MCCC : IJH0464_03 : Extracted Monophonic Melody
!!!COM: Haydn, Joseph
!!!OPR: String Quartet in G major
!!!OMV: 3
!!!SCT: Hob.III:66 ; Op.64 No.4
!!!ODT: 1790///
**kern
*thru
*k[]
*C:
*clefF
*M2/4
8g
=1
8.cc
32dd
32cc
8b
8cc
=2
8dd
8gg
8ee
8cc
=3
8dd
8ee
8ff
8ee
=4
8dd
16.ee
32dd
8dd
8g
=5
8.cc
32dd
32cc
8b
8cc
=6
8dd
8gg
8ee
8cc
=7
8dd
8gg
8ee
8aa
=8
4gg
16ff#
16gg
16aa
16bb
=9
8gg
4r
8g
=10
8.cc
32dd
32cc
8b
8cc
=11
32dd
32cc
32b
32cc
32dd
32ee
32ff
32gg
8ee
16dd
16cc
=12
16dd
16dd
16ee
16ee
16gg
16ff#
16ff
16ee
=13
8dd
16.ee
32dd
8dd
8g
=14
8.cc
32dd
32cc
16.b
32cc
16.cc
64b
64cc
=15
32dd
32cc
32b
32cc
32dd
32ee
32ff
32gg
8ee
16dd
16cc
=16
16dd
16gg
16gg
16gg
16ee
16aa
16aa
16aa
=17
32gg
32ff#
32aa
32gg
32bb
32aa
32ccc
32bb
16ddd
16ccc
16bb
16aa
=18
8gg
4r
8gg
=19
8.ff
32gg
32ff
8ee
8aa
=20
8.aa
16ff
8dd
8ee
=21
8ff
8gg
8ee
8ff
=22
4ee
8dd
8g
=23
8.cc
32dd
32cc
8b
8cc
=24
8dd
8gg
8ee
8cc
=25
8cc
8cc#
8..dd
32aa
=26
8aa
16.b
32gg
8gg
16.ee
32gg
=27
8g
32a
32g
32b
32a
32cc
32b
32dd
32cc
32ee
32dd
32ff
32b
=28
4dd
8cc
8gg
=29
8.ff
32gg
32ff
8ee
32a
32cc#
32ee
32aa
=30
12..aa[
96aa]
32ff
32gg
32ee
8dd
16ee
32dd
32ee
=31
16ff
16ff
16gg
16gg
16ee
16ee
16ff
32ee
32ff
=32
12..ee[
96ee]
32ff
32ff#
32gg
8dd
8g
=33
8.cc
32dd
32cc
16.b
32cc
16.cc
64b
64cc
=34
32dd
32cc
32b
32cc
32dd
32ee
32ff
32gg
8ee
16dd
16cc
=35
8cc
8cc#
32ee
32dd
32ff
32ee
32gg
32ff
32aa
32gg
=36
16aa
32gg
32ff
32ee
32dd
32cc
32b
16gg
32ff
32ee
32dd
32cc
32ee
32cc
=37
16g
32a-
32a
32b-
32b
32cc
32cc#
16dd
16ee
16ff
16b
=38
4dd
8cc
8g
=39
8.cc
32dd
32cc
8b
8cc
=40
8dd
8gg
8ee-
8cc
=41
8b
8cc
8ff
8ee-
=42
8dd
8gg
8ff#
8ff
=43
4ee-
8dd
8dd-
=44
4cc
8.b-
16ee-
=45
6..ee-[
48ee-]
16b-
16a-
16f
=46
16e-
16g
16b-
16dd
16ee-
16bb-
16gg
16ee-
=47
16ee-
16f
16ee-
16f
16dd
16f
16ff
16d
=48
16e-
16g
16b-
16dd
16ee-
16bb-
16gg
16ee-
=49
16ee-
16f
16ee-
16f
16dd
16f
16ff
16d
=50
16e-
16g
16b-
16ee-
16gg
16bb-
16aa-
16gg
=51
16ff
16aa-
16gg
16ff
4ee-
=52
4dd-
4cc
=53
4b-
4a-
=54
4.g
8f
=55
8f
8e-
8d
8e-
=56
4.d
8g
=57
8.cc
32dd
32cc
8b
8cc
=58
8dd
8gg
8ee-
8cc
=59
8b
8cc
8ff
8ee-
=60
4dd
16dd-
16b-
16dd-
16b-
=61
16b-
16a-
16g
16a-
16ee-
16cc
16ee-
16cc
=62
16b
16g
16b
16dd
16gg
16g
16gg
16g
=63
16gg
16a
16gg
16a
16ff#
16a
16aa
16f#
=64
16g
16b
16dd
16ff#
16gg
16ddd
16bb
16gg
=65
16gg
16a
16gg
16a
16ff#
16a
16aa
16f#
=66
16g
16b
16dd
16ff#
16gg
16g
16gg
16g
=67
16gg
16g
16ff#
16g
16ff
16g
16ee
16g
=68
16dd
16g
16cc
16g
16b
16g
16a
16b
=69
8.cc
32dd
32cc
8b
8cc
=70
8dd
8gg
8ee
8cc
=71
8dd
8ee
8ff
8ee
=72
8dd
16.ee
32dd
8dd
8g
=73
8.cc
32dd
32cc
16b
16gg
16cc
16gg
=74
16dd
16.gg
32aa
32ff
32gg
16ee
16gg
16ee
16cc
=75
16dd
32gg
64ff#
64gg
16bb
16gg
16ee
32gg#
32aa
32bb
32aa
32ccc
32aa
=76
8.gg
32aa
32gg
32ff#
32gg
32aa
32gg
32bb
32aa
32ccc
32aa
=77
8gg
4r
8gg
=78
8.ff
32gg
32ff
8ee
32a
32cc#
32ee
32aa
=79
12..aa[
96aa]
32ff
32gg
32ee
16dd
16dd
16r
32ff
32ee
=80
16r
32gg
32ff
16r
32aa
32gg
32ff
32ee
32ddd
32ccc
32bb
32aa
32gg
32ff
=81
8.ee
16ee-
8dd
8g
=82
16cc
32ee
32gg
32ccc
32gg
32ee
32cc
32b
32gg
16gg
32cc
32gg
16gg
=83
16dd
16.gg
32aa
32ff
32gg
16ee
16cc
16cc
16cc
=84
8cc
8cc#
32dd
32ee-
32ee
32ff
32ff#
32gg
32gg#
32aa
=85
8aa
16.b
32gg
8gg
16.ee
32ggg
=86
4ggg
32G
32B
32d
32f
48g
48b
48dd
32ff
32b
=87
8cc
4.r
=88
2bb
=89
4ccc
4r
=90
2b
=91
8cc
8r
8cc
8cc
=92
8cc
8r
8e
16.r
32e
=93
8e
4.r
==
*-
